Stemford/img/sections/tehnology/icon/phone.svg

<svg width="28" height="46" viewBox="0 0 28 46" fill="none" xmlns="http://www.w3.org/2000/svg">
<rect x="12" width="16" height="16.8" fill="#FF843F"/>
<path d="M18.4124 46H3.58762C1.60531 46 0 44.3897 0 42.4013V10.5987C0 8.61026 1.60531 7 3.58762 7H18.4124C20.3947 7 22 8.61026 22 10.5987V42.4013C22 44.3897 20.3947 46 18.4124 46ZM3.58762 9.43979C2.95522 9.43979 2.43228 9.96434 2.43228 10.5987V42.4013C2.43228 43.0357 2.95522 43.5602 3.58762 43.5602H18.4124C19.0448 43.5602 19.5677 43.0357 19.5677 42.4013V10.5987C19.5677 9.96434 19.0448 9.43979 18.4124 9.43979H3.58762Z" fill="#200B73"/>
<path d="M11.0669 41.157C10.9818 41.157 10.8967 41.1448 10.8237 41.1326C10.7507 41.1082 10.6656 41.0838 10.5926 41.0594C10.5197 41.0228 10.4467 40.9862 10.3859 40.9496C10.3129 40.9008 10.2521 40.852 10.2035 40.7911C10.0819 40.6813 9.99672 40.5471 9.93591 40.4007C9.87511 40.2543 9.83862 40.0957 9.83862 39.9371C9.83862 39.6078 9.9724 39.3028 10.2035 39.071C10.2521 39.01 10.3129 38.9612 10.3859 38.9124C10.4467 38.8758 10.5197 38.8392 10.5926 38.8026C10.6656 38.7782 10.7507 38.7538 10.8237 38.7416C11.225 38.6562 11.6385 38.7904 11.9182 39.071C12.1493 39.2906 12.2709 39.6078 12.2709 39.9371C12.2709 40.0957 12.2466 40.2543 12.1858 40.4007C12.125 40.5471 12.0277 40.6813 11.9182 40.7911C11.6872 41.0228 11.3831 41.157 11.0669 41.157Z" fill="#200B73"/>
</svg>

<svg width="28" height="46" fill="none" xmlns="http://www.w3.org/2000/svg"><path fill="#FF843F" d="M12 0h16v16.8H12z"/><path d="M18.412 46H3.588A3.592 3.592 0 010 42.401V10.6A3.592 3.592 0 013.588 7h14.824A3.592 3.592 0 0122 10.599V42.4a3.592 3.592 0 01-3.588 3.6zM3.588 9.44c-.633 0-1.156.524-1.156 1.159V42.4c0 .635.523 1.16 1.156 1.16h14.824c.633 0 1.156-.525 1.156-1.16V10.6c0-.635-.523-1.16-1.156-1.16H3.588z" fill="#200B73"/><path d="M11.067 41.157c-.085 0-.17-.012-.243-.024-.073-.025-.158-.05-.231-.074a2.81 2.81 0 01-.207-.11.778.778 0 01-.182-.158 1.067 1.067 0 01-.268-.39 1.218 1.218 0 01-.097-.464c0-.33.133-.634.364-.866a.776.776 0 01.183-.159c.06-.036.134-.073.207-.11a1.66 1.66 0 01.23-.06c.402-.086.816.048 1.095.329.231.22.353.537.353.866 0 .159-.024.317-.085.464a1.24 1.24 0 01-.268.39 1.207 1.207 0 01-.851.366z" fill="#200B73"/></svg>
